icons/svg/amenity/recycling_centre_map.svg

<?xml version="1.0" encoding="UTF-8" standalone="no"?>
<!-- Created with Inkscape (http://www.inkscape.org/) -->

<svg
   xmlns:dc="http://purl.org/dc/elements/1.1/"
   xmlns:cc="http://creativecommons.org/ns#"
   xmlns:rdf="http://www.w3.org/1999/02/22-rdf-syntax-ns#"
   xmlns:svg="http://www.w3.org/2000/svg"
   xmlns="http://www.w3.org/2000/svg"
   xmlns:sodipodi="http://sodipodi.sourceforge.net/DTD/sodipodi-0.dtd"
   xmlns:inkscape="http://www.inkscape.org/namespaces/inkscape"
   version="1.0"
   width="580"
   height="580"
   id="svg2"
   sodipodi:version="0.32"
   inkscape:version="0.91 r"
   sodipodi:docname="recycling_centre.svg"
   inkscape:output_extension="org.inkscape.output.svg.inkscape">
  <metadata
     id="metadata2975">
    <rdf:RDF>
      <cc:Work
         rdf:about="">
        <dc:format>image/svg+xml</dc:format>
        <dc:type
           rdf:resource="http://purl.org/dc/dcmitype/StillImage" />
        <cc:license
           rdf:resource="http://web.resource.org/cc/PublicDomain" />
        <dc:language>en</dc:language>
        <dc:title />
      </cc:Work>
    </rdf:RDF>
  </metadata>
  <sodipodi:namedview
     inkscape:window-height="1006"
     inkscape:window-width="1920"
     inkscape:pageshadow="2"
     inkscape:pageopacity="0.0"
     guidetolerance="10.0"
     gridtolerance="10.0"
     objecttolerance="10.0"
     borderopacity="1.0"
     bordercolor="#666666"
     pagecolor="#ffffff"
     id="base"
     inkscape:zoom="0.65172416"
     inkscape:cx="693.92017"
     inkscape:cy="223.29325"
     inkscape:window-x="1680"
     inkscape:window-y="0"
     inkscape:current-layer="svg2"
     showgrid="false"
     inkscape:window-maximized="1" />
  <defs
     id="defs4">
    <inkscape:perspective
       sodipodi:type="inkscape:persp3d"
       inkscape:vp_x="0 : 290 : 1"
       inkscape:vp_y="0 : 1000 : 0"
       inkscape:vp_z="580 : 290 : 1"
       inkscape:persp3d-origin="290 : 193.33333 : 1"
       id="perspective2441" />
    <inkscape:perspective
       id="perspective3452"
       inkscape:persp3d-origin="30 : 20 : 1"
       inkscape:vp_z="60 : 30 : 1"
       inkscape:vp_y="0 : 1000 : 0"
       inkscape:vp_x="0 : 30 : 1"
       sodipodi:type="inkscape:persp3d" />
    <symbol
       viewBox="244.5 110 489 219.9"
       id="symbol-university">
      <path
         id="path4460"
         d="M79,43l57,119c0,0,21-96,104-96s124,106,124,106l43-133l82-17L0,17L79,43z" />
      <path
         id="path4462"
         d="M94,176l-21,39"
         stroke-width="20"
         stroke="#000000"
         fill="none" />
      <path
         id="path4464"
         d="M300,19c0,10.5-22.6,19-50.5,19S199,29.5,199,19s22.6-19,50.5-19S300,8.5,300,19z" />
      <path
         id="path4466"
         d="M112,216l-16-38L64,88c0,0-9-8-4-35s16-24,16-24"
         stroke-width="20"
         stroke="#000000"
         ill="none" />
    </symbol>
    <inkscape:perspective
       id="perspective4471"
       inkscape:persp3d-origin="372.04724 : 350.78739 : 1"
       inkscape:vp_z="744.09448 : 526.18109 : 1"
       inkscape:vp_y="0 : 1000 : 0"
       inkscape:vp_x="0 : 526.18109 : 1"
       sodipodi:type="inkscape:persp3d" />
    <inkscape:perspective
       id="perspective4668"
       inkscape:persp3d-origin="6 : 4 : 1"
       inkscape:vp_z="12 : 6 : 1"
       inkscape:vp_y="0 : 1000 : 0"
       inkscape:vp_x="0 : 6 : 1"
       sodipodi:type="inkscape:persp3d" />
  </defs>
  <g
     id="g1327">
    <path
       d="M 66.275,1.768 C 24.94,1.768 1.704,23.139 1.704,66.804 L 1.704,516.927 C 1.704,557.771 22.599,579.156 63.896,579.156 L 515.92,579.156 C 557.227,579.156 578.149,558.841 578.149,516.927 L 578.149,66.804 C 578.149,24.203 557.227,1.768 514.628,1.768 C 514.624,1.768 66.133,1.625 66.275,1.768 z "
       style="fill:#111;stroke:#eee;stroke-width:3.40799999"
       id="path1329" />
  </g>
  <path
     style="font-style:normal;font-variant:normal;font-weight:normal;font-stretch:normal;font-size:40px;line-height:125%;font-family:NPSPICT3;-inkscape-font-specification:NPSPICT3;text-align:start;writing-mode:lr-tb;text-anchor:start;fill:#ffffff;fill-opacity:1;stroke:none;stroke-width:1px;stroke-linecap:butt;stroke-linejoin:miter;stroke-opacity:1"
     d="m 241.57703,356.93738 -41.64111,-72.55421 -83.74688,0 34.04267,19.70677 -21.04604,36.27026 c -1.79491,3.28911 -2.69232,6.7239 -2.69226,10.30436 -6e-5,3.58065 0.89735,7.01544 2.69226,10.30436 l 33.12702,57.76731 c 1.49408,-4.18185 2.98827,-7.76697 4.48254,-10.75535 l 41.20378,-70.75026 33.57802,19.70676 z m -62.23617,58.21829 c -2.39625,3.88124 -3.59433,8.05856 -3.59423,12.53197 -1e-4,6.86959 2.46437,12.69141 7.39344,17.46548 4.92885,4.77408 10.82356,7.16112 17.68415,7.16112 l 82.40758,0 0,-66.7187 -86.87644,0 c -0.60145,1.19358 -2.84271,5.07479 -6.72381,11.64365 l -10.29069,17.91648 z m 111.50306,-165.25248 83.29588,0 42.0921,-72.54054 -34.029,19.70676 -21.05971,-36.28394 c -3.88152,-6.86018 -9.8491,-10.2904 -17.9028,-10.29071 l -66.28141,0 c 2.6875,2.97955 4.92876,5.96335 6.72381,8.95141 l 40.73914,70.75026 -6.71014,4.03154 -26.86787,15.67522 z m -40.75281,-95.82786 c -9.55745,3e-4 -16.72311,4.17761 -21.49703,12.53196 l -41.64111,71.65224 c 15.81629,9.2568 35.07204,20.30369 57.7673,33.14069 13.4292,-22.98646 27.90631,-48.06403 43.43139,-75.2328 l -16.56351,-29.56013 c -4.77428,-8.35435 -11.93995,-12.53166 -21.49704,-12.53196 l 0,0 z m 107.0342,230.61823 0,-8.06309 0,-30.88576 -41.65478,72.54054 41.65478,72.10321 0,-38.96253 41.64111,0 c 8.06275,0 14.18068,-3.43478 18.35379,-10.30436 l 33.14069,-57.76731 c -4.4738,1.19359 -8.20468,1.79034 -11.19267,1.79028 l -81.94292,-0.45098 z m 61.79885,-122.69573 c -1.49453,0.89304 -20.75484,11.93993 -57.78097,33.14069 18.51292,31.94274 33.14492,57.17064 43.89604,75.68379 l 33.57802,0 c 9.85755,7e-5 17.17355,-4.18181 21.94802,-12.54564 4.47302,-8.06301 4.3227,-16.27186 -0.45099,-24.62661 l -41.19012,-71.65223 z"
     id="flowRoot3192"
     inkscape:connector-curvature="0" />
  <path
     style="color:#000000;clip-rule:nonzero;display:inline;overflow:visible;visibility:visible;opacity:1;isolation:auto;mix-blend-mode:normal;color-interpolation:sRGB;color-interpolation-filters:linearRGB;solid-color:#000000;solid-opacity:1;fill:none;fill-opacity:0.77272728;fill-rule:nonzero;stroke:#ffffff;stroke-width:25;stroke-linecap:round;stroke-linejoin:round;stroke-miterlimit:4;stroke-dasharray:none;stroke-dashoffset:0;stroke-opacity:1;marker:none;color-rendering:auto;image-rendering:auto;shape-rendering:auto;text-rendering:auto;enable-background:accumulate"
     d="M 67.579378,182.28322 292.16995,45.575905 512.42062,182.28322 l 0,346.72277 -444.841241,0 z"
     id="rect4144"
     inkscape:connector-curvature="0"
     sodipodi:nodetypes="cccccc" />
</svg>

<svg width="580" height="580" viewBox="0 0 580 580" fill="none" xmlns="http://www.w3.org/2000/svg">
<g clip-path="url(#clip0)">
<path d="M66.275 1.7679C24.94 1.7679 1.70398 23.1389 1.70398 66.8039V516.927C1.70398 557.771 22.599 579.156 63.896 579.156H515.92C557.227 579.156 578.149 558.841 578.149 516.927V66.8039C578.149 24.2029 557.227 1.7679 514.628 1.7679C514.624 1.7679 66.133 1.6249 66.275 1.7679Z" fill="#111111" stroke="#EEEEEE" stroke-width="3.408"/>
<path d="M241.577 356.937L199.936 284.383H116.189L150.232 304.09L129.186 340.36C127.391 343.649 126.493 347.084 126.493 350.665C126.493 354.245 127.391 357.68 129.186 360.969L162.313 418.736C163.807 414.554 165.301 410.969 166.795 407.981L207.999 337.231L241.577 356.937V356.937ZM179.341 415.156C176.945 419.037 175.747 423.214 175.747 427.688C175.747 434.557 178.211 440.379 183.14 445.153C188.069 449.927 193.964 452.314 200.824 452.314H283.232V385.596H196.355C195.754 386.789 193.513 390.67 189.632 397.239L179.341 415.156V415.156ZM290.844 249.903H374.14L416.232 177.363L382.203 197.07L361.143 160.786C357.262 153.925 351.294 150.495 343.24 150.495H276.959C279.646 153.474 281.888 156.458 283.683 159.446L324.422 230.197L317.712 234.228L290.844 249.903V249.903ZM250.091 154.075C240.534 154.076 233.368 158.253 228.594 166.607L186.953 238.26C202.769 247.516 222.025 258.563 244.72 271.4C258.149 248.414 272.627 223.336 288.152 196.168L271.588 166.607C266.814 158.253 259.648 154.076 250.091 154.075V154.075ZM357.125 384.694V376.631V345.745L315.471 418.285L357.125 490.389V451.426H398.766C406.829 451.426 412.947 447.991 417.12 441.122L450.261 383.354C445.787 384.548 442.056 385.145 439.068 385.145L357.125 384.694V384.694ZM418.924 261.998C417.43 262.891 398.169 273.938 361.143 295.139C379.656 327.081 394.288 352.309 405.039 370.822H438.617C448.475 370.822 455.791 366.641 460.565 358.277C465.038 350.214 464.888 342.005 460.114 333.65L418.924 261.998V261.998Z" fill="white"/>
<path d="M67.5793 182.283L292.17 45.5759L512.421 182.283V529.006H67.5793V182.283Z" stroke="white" stroke-width="25" stroke-linecap="round" stroke-linejoin="round"/>
</g>
<defs>
<clipPath id="clip0">
<path d="M0 0H580V580H0V0Z" fill="white"/>
</clipPath>
</defs>
</svg>
